X:1
T:O, Be Glad, ye Children
T:O, Be Glad, ye Children
T:William Fiske Sherwin
T:Mary Feary, 1863
T:Public Domain Courtesy of the Cyber Hymnal™
C:William Fiske Sherwin
Z:Public Domain
Z:Courtesy of the Cyber Hymnal™
%%score ( 1 2 ) ( 3 4 )
L:1/8
Q:1/4=77
M:2/4
K:Bb
V:1 treble 
V:2 treble 
V:3 bass 
V:4 bass 
V:1
 [DB]/[Ec]/ | [Fd][DB] [EG][EB] | [DF]2 [DB][CA]/[DB]/ | [Ec][EF] [Fd][Ec] | [DB]3 [DB]/[Ec]/ | %5
w: 1.~Have you|ev- er heard the|sto- ry That the|Ho- ly Fa- ther|tells, To His|
w: 2.~All the|an- gels cease their|sing- ing, While they|hear the Fa- ther|tell Of His|
w: 3.~Then the|hap- py an- gels|wing- ing Bright their|way thro’ realms a-|bove, List- ened|
w: 4.~Back they|flew to thrones all|shin- ing, And from|gold- en harp strings|rang Sweet- est|
 [Fd][DB] [EG][EB] | [DF]2 [DB][Fc]/[Fd]/ | [Fc][GB] [FA][=EG] | F3 z || %9
w: an- gels there in|glo- ry, Of His|child- ren, loved so|well?|
w: dar- ling Son so|will- ing To re-|deem the souls that|fell.|
w: to the child- ren,|sing- ing, Of the|dear Re- deem- er’s|love.|
w: mu- sic, ev- er|shin- ing, With the|song the child- ren|sang.|
"^Refrain" [FB]>[FB] [Fc][Fc] | [Fd]2 [DB]2 | [Ee][Fd] [Gc][GB] | (Ac) F2 | [FB]>[FB] [Fc][Fd] | %14
w: |||||
w: O, be glad, ye|child- ren,|Bless- èd lit- tle|child- * ren,|Yes, be glad, ye|
w: |||||
w: |||||
 [Ee]2 [Gd][Gc] | [EA] ([DG]/[DA]/) [Ec][Fd] | [DB]3 |] %17
w: |||
w: child- ren, For|Je- sus * loves you|well.|
w: |||
w: |||
V:2
 x | x4 | x4 | x4 | x4 | x4 | x4 | x4 | F3 x || x4 | x4 | x4 | F2 F2 | x4 | x4 | x4 | x3 |] %17
V:3
 [B,,B,]/[B,,B,]/ | [B,,B,][B,,B,] [B,,B,][B,,G,] | [B,,B,]2 [B,,F,]F,/F,/ | %3
 [F,A,][F,A,] [F,B,][F,A,] | [B,,B,]3 [B,,F,]/[B,,F,]/ | [B,,B,][B,,B,] [E,B,][E,G,] | %6
 [B,,B,]2 [B,,F,][A,,F,]/[B,,F,]/ | [C,A,][C,C] [C,C][C,B,] | [F,A,]3 z || %9
 [D,B,]>[D,B,] [F,A,][F,A,] | B,2 [B,,F,]2 | [C,A,][D,B,] [E,C][=E,C] | [F,C]2 [F,A,]2 | %13
 [B,D]>[B,D] [A,C][_A,B,] | [G,B,]2 [E,B,][E,E] | [F,D] (C/B,/) [F,A,][F,A,] | [B,,B,]3 |] %17
V:4
 x | x4 | x3 F,/F,/ | x4 | x4 | x4 | x4 | x4 | x4 || x4 | B,2 x2 | x4 | x4 | x4 | x4 | x F, x2 | %16
 x3 |] %17

